; generated by PrusaSlicer 2.3.0+win64 on 2021-04-20 at 00:37:13 UTC

; 

; external perimeters extrusion width = 0.60mm
; perimeters extrusion width = 0.43mm
; infill extrusion width = 0.45mm
; solid infill extrusion width = 0.70mm
; top infill extrusion width = 0.43mm
; support material extrusion width = 0.37mm
; first layer extrusion width = 0.42mm

M73 P0 R69
M201 X9000 Y9000 Z500 E10000 ; sets maximum accelerations, mm/sec^2
M203 X500 Y500 Z12 E120 ; sets maximum feedrates, mm/sec
M204 P2000 R1500 T2000 ; sets acceleration (P, T) and retract acceleration (R), mm/sec^2
M205 X10.00 Y10.00 Z0.20 E2.50 ; sets the jerk limits, mm/sec
M205 S0 T0 ; sets the minimum extruding and travel feed rate, mm/sec
M107
;TYPE:Custom
M862.3 P "MK2S" ; printer model check
M862.1 P0.4 ; nozzle diameter check
M115 U3.2.3 ; tell printer latest fw version
G90 ; use absolute coordinates
M83 ; extruder relative mode
M204 S2000 T1500 ; MK2 firmware only supports the old M204 format
M104 S215 ; set extruder temp
M140 S60 ; set bed temp
M190 S60 ; wait for bed temp
M109 S215 ; wait for extruder temp
G28 W ; home all without mesh bed level
G80 ; mesh bed leveling
G1 Y-3.0 F1000.0 ; go outside print area
G92 E0.0
G1 X60.0 E9.0  F1000.0 ; intro line
G1 X100.0 E12.5 F1000.0 ; intro line
G92 E0.0
G21 ; set units to millimeters
G90 ; use absolute coordinates
M83 ; use relative distances for extrusion
M900 K0.05 ; Filament gcode LA 1.5
M900 K30 ; Filament gcode LA 1.0
;LAYER_CHANGE
;Z:0.2
;HEIGHT:0.2
;BEFORE_LAYER_CHANGE
G92 E0.0
;0.2


G1 E-0.80000 F2100.000
G1 Z0.400 F10800.000
;AFTER_LAYER_CHANGE
;0.2
G1 X113.600 Y72.680
G1 Z0.200
G1 E0.80000 F2100.000
M204 S1000
;TYPE:Skirt
;WIDTH:0.42
G1 F1200.000
G1 X114.110 Y72.623 E0.01609
G1 X134.121 Y72.623 E0.62743
G1 X134.970 Y72.781 E0.02708
G1 X166.543 Y85.082 E1.06243
G1 X167.142 Y85.427 E0.02166
G1 X167.613 Y85.927 E0.02154
G1 X167.918 Y86.530 E0.02119
G1 X168.041 Y87.194 E0.02119
G1 X168.025 Y95.966 E0.27503
G1 X164.426 Y114.314 E0.58627
G1 X164.254 Y114.830 E0.01704
G1 X163.970 Y115.293 E0.01704
G1 X145.131 Y132.982 E0.81026
G1 X144.622 Y133.272 E0.01835
G1 X135.017 Y137.200 E0.32538
G1 X134.422 Y137.357 E0.01929
G1 X124.098 Y137.377 E0.32370
M73 P0 R68
G1 X123.405 Y137.268 E0.02201
G1 X95.703 Y125.819 E0.93982
G1 X94.512 Y125.198 E0.04211
G1 X93.445 Y124.454 E0.04078
G1 X92.429 Y123.530 E0.04308
G1 X88.870 Y119.550 E0.16740
G1 X87.967 Y118.348 E0.04715
G1 X87.197 Y117.061 E0.04701
G1 X86.392 Y115.251 E0.06211
G1 X85.843 Y113.344 E0.06223
G1 X85.562 Y111.379 E0.06223
G1 X85.551 Y109.444 E0.06068
G1 X85.821 Y107.420 E0.06402
G1 X86.357 Y105.505 E0.06235
G1 X94.275 Y83.486 E0.73367
G1 X94.832 Y82.298 E0.04115
G1 X95.565 Y81.213 E0.04106
G1 X96.239 Y80.464 E0.03159
G1 X96.944 Y79.844 E0.02944
G1 X98.448 Y78.902 E0.05564
G1 X113.545 Y72.703 E0.51170
; printing object Coupling.stl id:3 copy 0
;WIPE_START
G1 F8640.000
G1 X114.110 Y72.623 E-0.13188
G1 X116.831 Y72.623 E-0.62812
;WIPE_END
G1 E-0.04000 F2100.000
G1 Z0.600 F10800.000
G1 X105.520 Y83.029
G1 Z0.200
G1 E0.80000 F2100.000
;TYPE:External perimeter
G1 F1200.000
G1 X105.520 Y89.835 E0.21339
G1 X98.715 Y89.835 E0.21339
G1 X98.715 Y83.029 E0.21339
G1 X105.460 Y83.029 E0.21151
G1 X105.907 Y82.926 F10800.000
G1 X105.701 Y82.652
;TYPE:Perimeter
G1 F1200.000
G1 X98.536 Y82.652 E0.22468
G1 X98.941 Y82.299 E0.01685
G1 X99.272 Y82.065 E0.01269
G1 X99.820 Y81.753 E0.01979
G1 X100.190 Y81.589 E0.01269
G1 X100.790 Y81.392 E0.01979
G1 X101.185 Y81.304 E0.01270
G1 X101.811 Y81.229 E0.01978
G1 X102.216 Y81.221 E0.01270
G1 X102.845 Y81.271 E0.01978
G1 X103.244 Y81.343 E0.01270
G1 X103.850 Y81.517 E0.01978
G1 X104.227 Y81.666 E0.01271
G1 X104.787 Y81.956 E0.01977
G1 X105.127 Y82.177 E0.01271
G1 X105.659 Y82.610 E0.02150
G1 X105.897 Y82.844 F10800.000
G1 F1200.000
G1 X106.313 Y83.339 E0.02025
G1 X106.540 Y83.675 E0.01272
G1 X106.841 Y84.229 E0.01976
G1 X106.998 Y84.603 E0.01272
G1 X107.183 Y85.205 E0.01976
G1 X107.263 Y85.603 E0.01273
G1 X107.326 Y86.230 E0.01976
G1 X107.326 Y86.639 E0.01281
G1 X107.293 Y87.047 E0.01285
G1 X107.181 Y87.667 E0.01976
G1 X107.070 Y88.058 E0.01273
G1 X106.837 Y88.643 E0.01976
G1 X106.651 Y89.004 E0.01272
G1 X106.307 Y89.532 E0.01976
G1 X105.897 Y90.015 E0.01986
G1 X105.897 Y82.904 E0.22296
;WIPE_START
G1 F8640.000
G1 X106.313 Y83.339 E-0.13882
G1 X106.540 Y83.675 E-0.09368
G1 X106.841 Y84.229 E-0.14552
G1 X106.998 Y84.603 E-0.09370
G1 X107.183 Y85.205 E-0.14549
G1 X107.263 Y85.603 E-0.09373
G1 X107.284 Y85.815 E-0.04906
;WIPE_END
G1 E-0.04000 F2100.000
G1 Z0.600 F10800.000
G1 X105.699 Y90.212
G1 Z0.200
G1 E0.80000 F2100.000
G1 F1200.000
G1 X105.294 Y90.565 E0.01684
G1 X104.961 Y90.801 E0.01281
G1 X104.607 Y91.011 E0.01289
G1 X104.036 Y91.278 E0.01977
G1 X103.654 Y91.413 E0.01271
G1 X103.041 Y91.562 E0.01978
G1 X102.639 Y91.618 E0.01270
G1 X102.009 Y91.643 E0.01978
G1 X101.600 Y91.619 E0.01284
G1 X101.191 Y91.562 E0.01297
G1 X100.792 Y91.473 E0.01281
G1 X100.190 Y91.275 E0.01985
G1 X99.822 Y91.112 E0.01263
G1 X99.271 Y90.799 E0.01985
G1 X98.943 Y90.566 E0.01263
G1 X98.536 Y90.212 E0.01691
G1 X105.639 Y90.212 E0.22272
;WIPE_START
G1 F8640.000
G1 X105.294 Y90.565 E-0.11390
G1 X104.961 Y90.801 E-0.09437
G1 X104.607 Y91.011 E-0.09495
G1 X104.036 Y91.278 E-0.14561
G1 X103.654 Y91.413 E-0.09358
G1 X103.041 Y91.562 E-0.14564
G1 X102.732 Y91.605 E-0.07195
;WIPE_END
G1 E-0.04000 F2100.000
G1 Z0.600 F10800.000
G1 X98.337 Y90.015
G1 Z0.200
G1 E0.80000 F2100.000
G1 F1200.000
G1 X98.189 Y89.857 E0.00680
G1 X97.802 Y89.356 E0.01985
G1 X97.589 Y89.014 E0.01263
G1 X97.312 Y88.451 E0.01967
G1 X97.104 Y87.859 E0.01968
G1 X97.009 Y87.468 E0.01262
G1 X96.921 Y86.841 E0.01985
G1 X96.905 Y86.438 E0.01263
G1 X96.943 Y85.807 E0.01981
G1 X97.007 Y85.408 E0.01267
G1 X97.168 Y84.797 E0.01981
G1 X97.310 Y84.419 E0.01268
G1 X97.589 Y83.852 E0.01980
G1 X97.802 Y83.509 E0.01268
G1 X98.188 Y83.008 E0.01980
G1 X98.337 Y82.849 E0.00686
G1 X98.337 Y89.955 E0.22281
G1 X98.033 Y90.242 F10800.000
;TYPE:External perimeter
G1 F1200.000
G1 X97.901 Y90.102 E0.00602
G1 X97.492 Y89.571 E0.02103
G1 X97.259 Y89.197 E0.01381
G1 X96.964 Y88.597 E0.02096
G1 X96.742 Y87.966 E0.02097
G1 X96.638 Y87.538 E0.01380
G1 X96.545 Y86.874 E0.02103
G1 X96.528 Y86.434 E0.01381
G1 X96.568 Y85.766 E0.02099
G1 X96.637 Y85.330 E0.01385
G1 X96.808 Y84.683 E0.02098
G1 X96.963 Y84.269 E0.01385
G1 X97.259 Y83.669 E0.02098
G1 X97.492 Y83.293 E0.01386
G1 X97.900 Y82.763 E0.02097
G1 X98.203 Y82.442 E0.01386
G1 X98.708 Y82.003 E0.02097
G1 X99.069 Y81.747 E0.01387
G1 X99.650 Y81.416 E0.02097
G1 X100.054 Y81.237 E0.01387
G1 X100.690 Y81.028 E0.02096
G1 X101.121 Y80.932 E0.01387
G1 X101.785 Y80.852 E0.02096
G1 X102.228 Y80.844 E0.01388
G1 X102.894 Y80.897 E0.02096
G1 X103.330 Y80.975 E0.01388
G1 X103.972 Y81.159 E0.02095
G1 X104.384 Y81.323 E0.01389
G1 X104.977 Y81.629 E0.02095
G1 X105.348 Y81.871 E0.01389
G1 X105.870 Y82.289 E0.02094
G1 X106.186 Y82.599 E0.01389
G1 X106.614 Y83.112 E0.02094
G1 X106.863 Y83.478 E0.01390
G1 X107.181 Y84.065 E0.02094
G1 X107.353 Y84.474 E0.01390
G1 X107.549 Y85.112 E0.02093
G1 X107.637 Y85.547 E0.01390
G1 X107.703 Y86.211 E0.02093
G1 X107.703 Y86.654 E0.01387
G1 X107.668 Y87.096 E0.01391
G1 X107.549 Y87.753 E0.02093
G1 X107.427 Y88.179 E0.01390
G1 X107.181 Y88.800 E0.02093
G1 X106.977 Y89.194 E0.01390
G1 X106.613 Y89.754 E0.02094
G1 X106.336 Y90.099 E0.01387
G1 X106.031 Y90.423 E0.01396
G1 X105.527 Y90.861 E0.02094
G1 X105.166 Y91.117 E0.01387
G1 X104.784 Y91.345 E0.01395
G1 X104.179 Y91.628 E0.02095
G1 X103.761 Y91.775 E0.01388
G1 X103.112 Y91.933 E0.02095
G1 X102.673 Y91.994 E0.01388
G1 X102.005 Y92.021 E0.02096
G1 X101.563 Y91.994 E0.01390
G1 X101.123 Y91.933 E0.01391
G1 X100.692 Y91.837 E0.01387
G1 X100.054 Y91.627 E0.02103
G1 X99.652 Y91.449 E0.01381
G1 X99.069 Y91.117 E0.02103
G1 X98.709 Y90.863 E0.01381
G1 X98.203 Y90.423 E0.02103
G1 X98.074 Y90.286 E0.00590
G1 X98.084 Y90.057 F10800.000
;WIPE_START
G1 F8640.000
G1 X97.901 Y90.102 E-0.05821
G1 X97.492 Y89.571 E-0.15487
G1 X97.259 Y89.197 E-0.10168
G1 X96.964 Y88.597 E-0.15439
G1 X96.742 Y87.966 E-0.15443
G1 X96.638 Y87.538 E-0.10164
G1 X96.617 Y87.389 E-0.03479
;WIPE_END
G1 E-0.04000 F2100.000
G1 Z0.600 F10800.000
G1 X98.224 Y84.194
G1 Z0.200
G1 E0.80000 F2100.000
;TYPE:Solid infill
;WIDTH:0.45343
G1 F1200.000
G1 X97.907 Y83.876 E0.01534
G1 X97.705 Y84.255 E0.01466
G1 X98.055 Y84.605 E0.01686
G1 X98.055 Y85.185 E0.01982
G1 X97.524 Y84.654 E0.02563
G1 X97.382 Y85.094 E0.01575
G1 X98.055 Y85.766 E0.03245
G1 X98.055 Y86.346 E0.01982
G1 X97.269 Y85.561 E0.03794
G1 X97.224 Y85.838 E0.00960
G1 X97.210 Y86.082 E0.00834
G1 X98.055 Y86.927 E0.04079
G1 X98.055 Y87.508 E0.01982
G1 X97.197 Y86.650 E0.04142
G1 X97.272 Y87.305 E0.02253
G1 X98.055 Y88.088 E0.03779
G1 X98.055 Y88.669 E0.01982
G1 X97.213 Y87.827 E0.04063
;WIPE_START
G1 F8640.000
G1 X98.055 Y88.669 E-0.27487
G1 X98.055 Y88.088 E-0.13405
G1 X97.272 Y87.305 E-0.25561
G1 X97.225 Y86.895 E-0.09547
;WIPE_END
G1 E-0.04000 F2100.000
G1 Z0.600 F10800.000
G1 X104.849 Y90.735
G1 Z0.200
G1 E0.80000 F2100.000
;WIDTH:0.42113
G1 F1200.000
G1 X104.609 Y90.495 E0.01070
G1 X104.074 Y90.495 E0.01682
G1 X104.383 Y90.804 E0.01374
G1 X104.018 Y90.974 E0.01265
G1 X103.539 Y90.495 E0.02132
G1 X103.004 Y90.495 E0.01682
G1 X103.630 Y91.121 E0.02785
G1 X103.205 Y91.231 E0.01381
G1 X102.469 Y90.495 E0.03273
G1 X101.934 Y90.495 E0.01682
G1 X102.756 Y91.316 E0.03653
G1 X102.255 Y91.350 E0.01578
G1 X101.400 Y90.495 E0.03805
G1 X100.865 Y90.495 E0.01682
G1 X101.712 Y91.342 E0.03769
G1 X101.083 Y91.248 E0.02001
G1 X100.330 Y90.495 E0.03349
G1 X99.795 Y90.495 E0.01682
G1 X100.586 Y91.286 E0.03520
;WIPE_START
G1 F8640.000
G1 X99.795 Y90.495 E-0.25843
G1 X100.330 Y90.495 E-0.12350
G1 X101.083 Y91.248 E-0.24590
G1 X101.649 Y91.333 E-0.13217
;WIPE_END
G1 E-0.04000 F2100.000
G1 Z0.600 F10800.000
G1 X106.103 Y89.459
G1 Z0.200
G1 E0.80000 F2100.000
;TYPE:Gap fill
;WIDTH:0.118531
G1 F1200.000
G1 X106.237 Y89.077 E0.00255
;WIPE_START
G1 F8640.000
G1 X106.103 Y89.459 E-0.09358
;WIPE_END
G1 E-0.70642 F2100.000
G1 Z0.600 F10800.000
G1 X106.993 Y84.972
G1 Z0.200
G1 E0.80000 F2100.000
;TYPE:Solid infill
;WIDTH:0.452261
G1 F1200.000
G1 X106.180 Y84.159 E0.03913
G1 X106.180 Y84.738 E0.01970
G1 X106.957 Y85.514 E0.03739
G1 X106.983 Y85.645 E0.00454
G1 X107.036 Y86.172 E0.01802
G1 X106.180 Y85.317 E0.04118
G1 X106.180 Y85.895 E0.01970
G1 X107.033 Y86.749 E0.04107
G1 X107.012 Y87.011 E0.00896
G1 X106.967 Y87.261 E0.00866
G1 X106.180 Y86.474 E0.03788
G1 X106.180 Y87.053 E0.01970
G1 X106.866 Y87.739 E0.03303
G1 X106.720 Y88.172 E0.01554
G1 X106.180 Y87.632 E0.02599
G1 X106.180 Y88.211 E0.01970
G1 X106.677 Y88.708 E0.02391
;WIPE_START
G1 F8640.000
G1 X106.180 Y88.211 E-0.16218
G1 X106.180 Y87.632 E-0.13367
G1 X106.720 Y88.172 E-0.17631
G1 X106.866 Y87.739 E-0.10544
G1 X106.308 Y87.181 E-0.18241
;WIPE_END
G1 E-0.04000 F2100.000
G1 Z0.600 F10800.000
G1 X103.657 Y81.579
G1 Z0.200
G1 E0.80000 F2100.000
;WIDTH:0.421673
G1 F1200.000
G1 X104.448 Y82.369 E0.03521
G1 X103.912 Y82.369 E0.01687
G1 X103.158 Y81.615 E0.03360
G1 X102.809 Y81.552 E0.01116
G1 X102.537 Y81.530 E0.00858
G1 X103.376 Y82.369 E0.03738
G1 X102.841 Y82.369 E0.01687
G1 X101.980 Y81.508 E0.03835
G1 X101.488 Y81.553 E0.01554
G1 X102.305 Y82.369 E0.03638
G1 X101.770 Y82.369 E0.01687
G1 X101.029 Y81.629 E0.03300
G1 X100.612 Y81.748 E0.01364
G1 X101.234 Y82.369 E0.02768
G1 X100.698 Y82.369 E0.01687
G1 X100.216 Y81.887 E0.02148
G1 X99.853 Y82.060 E0.01266
G1 X100.163 Y82.369 E0.01378
G1 X99.627 Y82.369 E0.01687
G1 X99.387 Y82.130 E0.01067
; stop printing object Coupling.stl id:3 copy 0
; printing object Cam.stl id:0 copy 0
;WIPE_START
G1 F8640.000
G1 X99.627 Y82.369 E-0.07827
G1 X100.163 Y82.369 E-0.12368
G1 X99.853 Y82.060 E-0.10103
G1 X100.216 Y81.887 E-0.09280
G1 X100.698 Y82.369 E-0.15745
G1 X101.234 Y82.369 E-0.12368
G1 X100.979 Y82.115 E-0.08309
;WIPE_END
G1 E-0.04000 F2100.000
G1 Z0.600 F10800.000
G1 X99.879 Y112.540
G1 Z0.200
G1 E0.80000 F2100.000
;TYPE:Perimeter
;WIDTH:0.42
G1 F1200.000
G1 X100.345 Y112.582 E0.01468
G1 X100.777 Y112.713 E0.01415
G1 X101.173 Y112.925 E0.01408
G1 X101.520 Y113.210 E0.01408
G1 X101.804 Y113.557 E0.01408
G1 X102.016 Y113.953 E0.01408
G1 X102.146 Y114.382 E0.01408
G1 X102.190 Y114.829 E0.01408
G1 X102.146 Y115.276 E0.01408
G1 X102.016 Y115.706 E0.01408
G1 X101.804 Y116.101 E0.01408
G1 X101.520 Y116.449 E0.01408
G1 X101.173 Y116.733 E0.01408
G1 X100.777 Y116.945 E0.01408
G1 X100.347 Y117.075 E0.01408
G1 X99.900 Y117.119 E0.01408
G1 X99.453 Y117.075 E0.01408
G1 X99.024 Y116.945 E0.01408
G1 X98.628 Y116.733 E0.01408
G1 X98.281 Y116.449 E0.01408
G1 X97.996 Y116.101 E0.01408
G1 X97.784 Y115.706 E0.01408
G1 X97.654 Y115.276 E0.01408
G1 X97.610 Y114.829 E0.01408
G1 X97.654 Y114.382 E0.01408
G1 X97.784 Y113.953 E0.01408
G1 X97.996 Y113.557 E0.01408
G1 X98.281 Y113.210 E0.01408
G1 X98.628 Y112.925 E0.01408
G1 X99.024 Y112.713 E0.01408
G1 X99.453 Y112.583 E0.01405
G1 X99.819 Y112.546 E0.01155
G1 X99.857 Y112.921 F10800.000
;TYPE:External perimeter
G1 F1200.000
G1 X100.272 Y112.954 E0.01306
G1 X100.632 Y113.063 E0.01177
G1 X100.962 Y113.240 E0.01175
G1 X101.252 Y113.478 E0.01175
G1 X101.489 Y113.767 E0.01175
G1 X101.666 Y114.098 E0.01175
G1 X101.775 Y114.456 E0.01175
G1 X101.812 Y114.829 E0.01175
G1 X101.775 Y115.202 E0.01175
G1 X101.666 Y115.561 E0.01175
G1 X101.489 Y115.891 E0.01175
G1 X101.252 Y116.181 E0.01175
G1 X100.962 Y116.418 E0.01175
G1 X100.632 Y116.595 E0.01175
G1 X100.273 Y116.704 E0.01175
G1 X99.900 Y116.740 E0.01175
G1 X99.527 Y116.704 E0.01175
G1 X99.169 Y116.595 E0.01175
G1 X98.838 Y116.418 E0.01175
G1 X98.549 Y116.181 E0.01175
G1 X98.311 Y115.891 E0.01175
G1 X98.134 Y115.561 E0.01175
G1 X98.026 Y115.202 E0.01175
G1 X97.989 Y114.829 E0.01175
G1 X98.026 Y114.456 E0.01175
G1 X98.134 Y114.098 E0.01175
G1 X98.311 Y113.767 E0.01175
G1 X98.549 Y113.478 E0.01175
G1 X98.838 Y113.240 E0.01175
G1 X99.169 Y113.063 E0.01175
G1 X99.527 Y112.955 E0.01174
G1 X99.797 Y112.927 E0.00852
G1 X100.052 Y112.572 F10800.000
;WIPE_START
G1 F8640.000
G1 X100.272 Y112.954 E-0.10986
G1 X100.632 Y113.063 E-0.08670
G1 X100.962 Y113.240 E-0.08651
G1 X101.252 Y113.478 E-0.08651
G1 X101.489 Y113.767 E-0.08651
G1 X101.666 Y114.098 E-0.08651
G1 X101.775 Y114.456 E-0.08651
G1 X101.812 Y114.829 E-0.08651
G1 X101.793 Y115.020 E-0.04437
;WIPE_END
G1 E-0.04000 F2100.000
G1 Z0.600 F10800.000
G1 X92.793 Y119.192
G1 Z0.200
G1 E0.80000 F2100.000
;TYPE:Perimeter
G1 F1200.000
G1 X91.290 Y117.512 E0.07067
G1 X90.812 Y116.897 E0.02443
G1 X90.379 Y116.251 E0.02437
G1 X90.185 Y115.927 E0.01184
G1 X89.818 Y115.235 E0.02459
G1 X89.502 Y114.524 E0.02437
G1 X89.367 Y114.172 E0.01184
G1 X89.124 Y113.426 E0.02459
G1 X88.935 Y112.672 E0.02437
G1 X88.861 Y112.296 E0.01200
G1 X88.800 Y111.915 E0.01211
G1 X88.717 Y111.142 E0.02437
G1 X88.688 Y110.364 E0.02443
G1 X88.712 Y109.588 E0.02433
G1 X88.789 Y108.822 E0.02415
G1 X88.921 Y108.052 E0.02449
G1 X89.005 Y107.679 E0.01200
G1 X89.216 Y106.927 E0.02449
G1 X89.339 Y106.564 E0.01199
G1 X89.626 Y105.838 E0.02449
G1 X89.785 Y105.490 E0.01199
G1 X90.145 Y104.802 E0.02433
G1 X90.553 Y104.137 E0.02447
G1 X91.003 Y103.505 E0.02433
G1 X91.241 Y103.205 E0.01200
G1 X91.493 Y102.911 E0.01215
G1 X92.029 Y102.343 E0.02449
G1 X92.306 Y102.079 E0.01199
G1 X92.899 Y101.571 E0.02449
G1 X93.202 Y101.337 E0.01199
G1 X93.844 Y100.893 E0.02450
G1 X94.170 Y100.692 E0.01199
G1 X94.855 Y100.316 E0.02450
G1 X95.199 Y100.150 E0.01199
G1 X95.919 Y99.847 E0.02450
G1 X96.279 Y99.717 E0.01198
G1 X97.026 Y99.491 E0.02450
G1 X97.398 Y99.399 E0.01198
G1 X98.165 Y99.252 E0.02450
G1 X98.543 Y99.199 E0.01198
G1 X99.317 Y99.132 E0.02434
G1 X100.097 Y99.118 E0.02446
G1 X100.872 Y99.159 E0.02434
G1 X101.636 Y99.252 E0.02414
G1 X102.404 Y99.399 E0.02450
G1 X102.775 Y99.491 E0.01198
G1 X103.523 Y99.718 E0.02450
G1 X103.882 Y99.847 E0.01198
G1 X104.602 Y100.150 E0.02451
G1 X104.946 Y100.316 E0.01198
G1 X105.627 Y100.690 E0.02435
G1 X106.283 Y101.111 E0.02445
G1 X106.906 Y101.575 E0.02435
G1 X107.490 Y102.076 E0.02413
G1 X108.047 Y102.625 E0.02451
