; generated by PrusaSlicer 2.3.0+win64 on 2021-04-13 at 23:47:10 UTC


;
;

;
;
; 

; external perimeters extrusion width = 0.45mm
; perimeters extrusion width = 0.45mm
; infill extrusion width = 0.45mm
; solid infill extrusion width = 0.45mm
; top infill extrusion width = 0.40mm
; support material extrusion width = 0.35mm
; first layer extrusion width = 0.42mm

M73 P0 R178
M201 X1250 Y1250 Z400 E5000 ; sets maximum accelerations, mm/sec^2
M203 X180 Y180 Z12 E80 ; sets maximum feedrates, mm/sec
M204 P1250 R1250 T1250 ; sets acceleration (P, T) and retract acceleration (R), mm/sec^2
M205 X8.00 Y8.00 Z2.00 E10.00 ; sets the jerk limits, mm/sec
M205 S0 T0 ; sets the minimum extruding and travel feed rate, mm/sec
M107
;TYPE:Custom
G90 ; use absolute coordinates
M83 ; extruder relative mode
M104 S170 ; set extruder temp for bed leveling
M140 S60 ; set bed temp
M109 R170 ; wait for bed leveling temp
M190 S60 ; wait for bed temp
G28 ; home all without mesh bed level
G29 ; mesh bed leveling 
M104 S235 ; set extruder temp
G92 E0.0
G1 Y-2.0 X179 F2400
G1 Z3 F720
M109 S235 ; wait for extruder temp

; intro line
G1 X170 F1000
G1 Z0.2 F720
G1 X110.0 E8.0 F900
G1 X40.0 E10.0 F700
G92 E0.0

M221 S95 ; set flow
G21 ; set units to millimeters
G90 ; use absolute coordinates
M83 ; use relative distances for extrusion
M900 K0.2 ; Filament gcode LA 1.5
; ; Filament gcode LA 1.0
;LAYER_CHANGE
;Z:0.2
;HEIGHT:0.2
;BEFORE_LAYER_CHANGE
G92 E0.0
;0.2


G1 Z0.200 F9000.000
;AFTER_LAYER_CHANGE
;0.2
G1 E-3.20000 F4200.000
G1 Z0.400 F9000.000
G1 X52.955 Y32.590
G1 Z0.200
G1 E3.20000 F2400.000
M204 S800
;TYPE:Skirt
;WIDTH:0.42
G1 F1200.000
G1 X53.614 Y32.050 E0.02673
G1 X54.165 Y31.830 E0.01858
G1 X54.756 Y31.753 E0.01870
G1 X119.623 Y31.753 E2.03385
G1 X120.451 Y31.902 E0.02637
G1 X121.172 Y32.327 E0.02626
G1 X128.612 Y39.373 E0.32128
G1 X128.940 Y39.763 E0.01597
G1 X145.158 Y69.410 E1.05955
G1 X145.358 Y69.899 E0.01657
G1 X145.448 Y70.523 E0.01977
G1 X145.443 Y79.080 E0.26831
G1 X143.072 Y109.696 E0.96282
G1 X142.789 Y112.393 E0.08502
G1 X142.637 Y113.017 E0.02012
G1 X142.277 Y113.998 E0.03277
G1 X140.921 Y116.351 E0.08515
G1 X140.167 Y117.278 E0.03748
G1 X124.906 Y132.045 E0.66582
G1 X124.378 Y132.428 E0.02048
G1 X114.458 Y136.480 E0.33597
G1 X92.489 Y143.643 E0.72451
G1 X89.708 Y144.239 E0.08918
G1 X88.851 Y144.286 E0.02691
G1 X88.009 Y144.238 E0.02646
G1 X85.187 Y143.629 E0.09051
G1 X83.930 Y143.077 E0.04304
G1 X52.384 Y125.094 E1.13854
G1 X33.933 Y105.043 E0.85433
G1 X33.615 Y104.426 E0.02178
G1 X33.488 Y103.739 E0.02190
G1 X33.505 Y92.678 E0.34679
G1 X37.427 Y77.208 E0.50040
G1 X52.528 Y33.328 E1.45503
G1 X52.924 Y32.642 E0.02484
M204 S1250
; printing object shaft_support B.stl id:5 copy 0
G1 E-2.24000 F4200.000
;WIPE_START
G1 F7200.000
G1 X53.614 Y32.050 E-0.50362
G1 X54.165 Y31.830 E-0.32843
G1 X54.308 Y31.812 E-0.07995
;WIPE_END
G1 E-0.04800 F4200.000
G1 Z0.400 F9000.000
G1 X54.765 Y43.802
G1 Z0.200
G1 E3.20000 F2400.000
M204 S800
;TYPE:Support material
G1 F1200.000
G1 X54.765 Y34.130 E0.30325
G1 X55.519 Y34.130 E0.02365
G1 X55.519 Y43.632 E0.29792
G1 X56.010 Y43.632 E0.01540
G1 X56.010 Y40.901 E0.08564
G1 X56.273 Y40.638 E0.01166
G1 X56.273 Y34.130 E0.20404
G1 X57.028 Y34.130 E0.02365
G1 X57.028 Y40.632 E0.20387
G1 X57.782 Y40.632 E0.02365
G1 X57.782 Y34.130 E0.20387
G1 X58.536 Y34.130 E0.02365
G1 X58.536 Y40.632 E0.20387
G1 X59.290 Y40.632 E0.02365
G1 X59.290 Y34.130 E0.20387
G1 X60.044 Y34.130 E0.02365
G1 X60.044 Y40.632 E0.20387
G1 X60.798 Y40.632 E0.02365
G1 X60.798 Y34.130 E0.20387
G1 X61.553 Y34.130 E0.02365
G1 X61.553 Y40.632 E0.20387
G1 X62.307 Y40.632 E0.02365
G1 X62.307 Y34.130 E0.20387
G1 X63.061 Y34.130 E0.02365
G1 X63.061 Y40.632 E0.20387
G1 X63.815 Y40.632 E0.02365
G1 X63.815 Y34.130 E0.20387
G1 X64.569 Y34.130 E0.02365
G1 X64.569 Y40.802 E0.20919
M204 S1250
G1 E-2.24000 F4200.000
;WIPE_START
G1 F7200.000
G1 X64.569 Y39.156 E-0.91200
;WIPE_END
G1 E-0.04800 F4200.000
G1 Z0.400 F9000.000
G1 X52.503 Y72.368
G1 Z0.200
G1 E3.20000 F2400.000
M204 S800
G1 F1200.000
G1 X52.503 Y61.687 E0.33491
G1 X53.257 Y61.687 E0.02365
G1 X53.257 Y72.198 E0.32959
G1 X54.011 Y72.198 E0.02365
G1 X54.011 Y61.687 E0.32959
G1 X54.765 Y61.687 E0.02365
G1 X54.765 Y72.198 E0.32959
G1 X55.519 Y72.198 E0.02365
G1 X55.519 Y61.687 E0.32959
G1 X56.010 Y61.687 E0.01540
G1 X56.010 Y68.428 E0.21137
G1 X56.273 Y68.691 E0.01166
G1 X56.273 Y72.198 E0.10997
G1 X57.028 Y72.198 E0.02365
G1 X57.028 Y68.696 E0.10980
G1 X57.782 Y68.696 E0.02365
G1 X57.782 Y72.198 E0.10980
G1 X58.536 Y72.198 E0.02365
G1 X58.536 Y68.696 E0.10980
G1 X59.290 Y68.696 E0.02365
G1 X59.290 Y72.198 E0.10980
G1 X60.044 Y72.198 E0.02365
G1 X60.044 Y68.696 E0.10980
G1 X60.798 Y68.696 E0.02365
G1 X60.798 Y72.198 E0.10980
G1 X61.553 Y72.198 E0.02365
G1 X61.553 Y68.696 E0.10980
G1 X62.307 Y68.696 E0.02365
G1 X62.307 Y72.198 E0.10980
G1 X63.061 Y72.198 E0.02365
G1 X63.061 Y68.696 E0.10980
G1 X63.815 Y68.696 E0.02365
G1 X63.815 Y72.198 E0.10980
G1 X64.569 Y72.198 E0.02365
G1 X64.569 Y68.696 E0.10980
G1 X65.323 Y68.696 E0.02365
G1 X65.323 Y72.198 E0.10980
G1 X66.078 Y72.198 E0.02365
G1 X66.078 Y68.696 E0.10980
G1 X66.832 Y68.696 E0.02365
G1 X66.832 Y72.198 E0.10980
G1 X67.586 Y72.198 E0.02365
G1 X67.586 Y68.696 E0.10980
G1 X68.340 Y68.696 E0.02365
G1 X68.340 Y72.198 E0.10980
G1 X69.094 Y72.198 E0.02365
G1 X69.094 Y68.696 E0.10980
G1 X69.848 Y68.696 E0.02365
G1 X69.848 Y72.198 E0.10980
G1 X70.602 Y72.198 E0.02365
G1 X70.602 Y68.696 E0.10980
G1 X71.357 Y68.696 E0.02365
G1 X71.357 Y72.198 E0.10980
G1 X72.111 Y72.198 E0.02365
G1 X72.111 Y61.687 E0.32959
G1 X72.865 Y61.687 E0.02365
G1 X72.865 Y72.198 E0.32959
G1 X73.619 Y72.198 E0.02365
G1 X73.619 Y61.687 E0.32959
G1 X74.373 Y61.687 E0.02365
G1 X74.373 Y72.198 E0.32959
G1 X75.127 Y72.198 E0.02365
G1 X75.127 Y61.687 E0.32959
G1 X75.882 Y61.687 E0.02365
G1 X75.882 Y72.198 E0.32959
G1 X76.636 Y72.198 E0.02365
G1 X76.636 Y61.687 E0.32959
G1 X77.390 Y61.687 E0.02365
G1 X77.390 Y72.198 E0.32959
G1 X78.144 Y72.198 E0.02365
G1 X78.144 Y61.687 E0.32959
M73 P0 R177
G1 X78.898 Y61.687 E0.02365
G1 X78.898 Y72.198 E0.32959
G1 X79.652 Y72.198 E0.02365
G1 X79.652 Y68.696 E0.10980
G1 X80.407 Y68.696 E0.02365
G1 X80.407 Y72.198 E0.10980
G1 X81.161 Y72.198 E0.02365
G1 X81.161 Y68.696 E0.10980
G1 X81.915 Y68.696 E0.02365
G1 X81.915 Y72.198 E0.10980
G1 X82.669 Y72.198 E0.02365
G1 X82.669 Y68.696 E0.10980
G1 X83.423 Y68.696 E0.02365
G1 X83.423 Y72.198 E0.10980
G1 X84.177 Y72.198 E0.02365
G1 X84.177 Y68.696 E0.10980
G1 X84.931 Y68.696 E0.02365
G1 X84.931 Y72.198 E0.10980
G1 X85.686 Y72.198 E0.02365
G1 X85.686 Y68.696 E0.10980
G1 X86.440 Y68.696 E0.02365
G1 X86.440 Y72.198 E0.10980
G1 X87.194 Y72.198 E0.02365
G1 X87.194 Y68.696 E0.10980
G1 X87.948 Y68.696 E0.02365
G1 X87.948 Y72.198 E0.10980
G1 X88.702 Y72.198 E0.02365
G1 X88.702 Y68.696 E0.10980
G1 X89.456 Y68.696 E0.02365
G1 X89.456 Y72.198 E0.10980
G1 X90.211 Y72.198 E0.02365
G1 X90.211 Y68.696 E0.10980
G1 X90.965 Y68.696 E0.02365
G1 X90.965 Y72.198 E0.10980
G1 X91.719 Y72.198 E0.02365
G1 X91.719 Y68.696 E0.10980
G1 X92.473 Y68.696 E0.02365
G1 X92.473 Y72.198 E0.10980
G1 X93.227 Y72.198 E0.02365
G1 X93.227 Y68.696 E0.10980
G1 X93.981 Y68.696 E0.02365
G1 X93.981 Y72.198 E0.10980
G1 X94.736 Y72.198 E0.02365
G1 X94.736 Y68.696 E0.10980
G1 X95.490 Y68.696 E0.02365
G1 X95.490 Y72.198 E0.10980
G1 X96.244 Y72.198 E0.02365
G1 X96.244 Y68.696 E0.10980
G1 X96.998 Y68.696 E0.02365
G1 X96.998 Y72.198 E0.10980
G1 X97.752 Y72.198 E0.02365
G1 X97.752 Y68.696 E0.10980
G1 X98.506 Y68.696 E0.02365
G1 X98.506 Y72.198 E0.10980
G1 X99.261 Y72.198 E0.02365
G1 X99.261 Y68.696 E0.10980
G1 X100.015 Y68.696 E0.02365
G1 X100.015 Y72.198 E0.10980
G1 X100.769 Y72.198 E0.02365
G1 X100.769 Y68.696 E0.10980
G1 X101.523 Y68.696 E0.02365
G1 X101.523 Y72.198 E0.10980
G1 X102.277 Y72.198 E0.02365
G1 X102.277 Y68.696 E0.10980
G1 X103.031 Y68.696 E0.02365
G1 X103.031 Y72.198 E0.10980
G1 X103.785 Y72.198 E0.02365
G1 X103.785 Y61.687 E0.32959
G1 X104.540 Y61.687 E0.02365
G1 X104.540 Y72.198 E0.32959
G1 X105.294 Y72.198 E0.02365
G1 X105.294 Y61.687 E0.32959
G1 X106.048 Y61.687 E0.02365
G1 X106.048 Y72.368 E0.33491
M204 S1250
G1 E-2.24000 F4200.000
;WIPE_START
G1 F7200.000
G1 X106.048 Y70.722 E-0.91200
;WIPE_END
G1 E-0.04800 F4200.000
G1 Z0.400 F9000.000
G1 X118.869 Y61.517
G1 Z0.200
G1 E3.20000 F2400.000
M204 S800
G1 F1200.000
G1 X118.869 Y72.198 E0.33491
G1 X119.623 Y72.198 E0.02365
G1 X119.623 Y61.687 E0.32959
G1 X120.377 Y61.687 E0.02365
G1 X120.377 Y72.198 E0.32959
G1 X121.131 Y72.198 E0.02365
G1 X121.131 Y61.687 E0.32959
G1 X121.510 Y61.687 E0.01189
G1 X121.510 Y68.428 E0.21137
G1 X121.779 Y68.696 E0.01191
G1 X121.885 Y68.696 E0.00333
G1 X121.885 Y72.198 E0.10980
G1 X122.639 Y72.198 E0.02365
G1 X122.639 Y68.696 E0.10980
G1 X123.394 Y68.696 E0.02365
G1 X123.394 Y72.198 E0.10980
G1 X124.148 Y72.198 E0.02365
G1 X124.148 Y68.696 E0.10980
G1 X124.902 Y68.696 E0.02365
G1 X124.902 Y72.198 E0.10980
G1 X125.656 Y72.198 E0.02365
G1 X125.656 Y68.696 E0.10980
G1 X126.410 Y68.696 E0.02365
G1 X126.410 Y72.198 E0.10980
G1 X127.164 Y72.198 E0.02365
G1 X127.164 Y68.691 E0.10997
G1 X127.427 Y68.428 E0.01166
G1 X127.427 Y61.687 E0.21137
G1 X127.919 Y61.687 E0.01540
G1 X127.919 Y72.198 E0.32959
G1 X128.673 Y72.198 E0.02365
G1 X128.673 Y61.687 E0.32959
G1 X129.427 Y61.687 E0.02365
G1 X129.427 Y72.198 E0.32959
G1 X130.181 Y72.198 E0.02365
G1 X130.181 Y61.687 E0.32959
G1 X130.935 Y61.687 E0.02365
G1 X130.935 Y72.368 E0.33491
M204 S1250
G1 E-2.24000 F4200.000
;WIPE_START
G1 F7200.000
G1 X130.935 Y70.722 E-0.91200
;WIPE_END
G1 E-0.04800 F4200.000
G1 Z0.400 F9000.000
G1 X119.623 Y40.802
G1 Z0.200
G1 E3.20000 F2400.000
M204 S800
G1 F1200.000
G1 X119.623 Y34.130 E0.20919
G1 X118.869 Y34.130 E0.02365
G1 X118.869 Y40.632 E0.20387
G1 X118.114 Y40.632 E0.02365
G1 X118.114 Y34.130 E0.20387
G1 X117.360 Y34.130 E0.02365
G1 X117.360 Y40.632 E0.20387
G1 X116.606 Y40.632 E0.02365
G1 X116.606 Y34.130 E0.20387
G1 X115.852 Y34.130 E0.02365
G1 X115.852 Y40.632 E0.20387
G1 X115.098 Y40.632 E0.02365
G1 X115.098 Y34.130 E0.20387
G1 X114.344 Y34.130 E0.02365
G1 X114.344 Y40.632 E0.20387
G1 X113.590 Y40.632 E0.02365
G1 X113.590 Y34.130 E0.20387
G1 X112.835 Y34.130 E0.02365
G1 X112.835 Y40.632 E0.20387
G1 X112.081 Y40.632 E0.02365
G1 X112.081 Y34.130 E0.20387
G1 X111.327 Y34.130 E0.02365
G1 X111.327 Y40.632 E0.20387
G1 X110.573 Y40.632 E0.02365
G1 X110.573 Y34.130 E0.20387
G1 X109.819 Y34.130 E0.02365
G1 X109.819 Y40.802 E0.20919
M204 S1250
G1 E-2.24000 F4200.000
;WIPE_START
G1 F7200.000
G1 X109.819 Y39.156 E-0.91200
;WIPE_END
G1 E-0.04800 F4200.000
G1 Z0.400 F9000.000
G1 X122.756 Y47.451
G1 Z0.200
G1 E3.20000 F2400.000
M204 S800
;TYPE:Perimeter
G1 F1200.000
G1 X102.182 Y47.451 E0.64509
G1 X102.182 Y67.451 E0.62709
G1 X80.256 Y67.451 E0.68747
G1 X80.256 Y47.451 E0.62709
G1 X70.682 Y47.451 E0.30019
G1 X70.682 Y67.451 E0.62709
G1 X57.256 Y67.451 E0.42096
G1 X57.256 Y41.878 E0.80182
G1 X126.182 Y41.878 E2.16112
G1 X126.182 Y67.451 E0.80182
G1 X122.756 Y67.451 E0.10741
G1 X122.756 Y47.511 E0.62520
M204 S1250
G1 X122.379 Y47.828 F9000.000
M204 S800
;TYPE:External perimeter
G1 F1200.000
G1 X102.559 Y47.828 E0.62144
G1 X102.559 Y67.828 E0.62709
G1 X79.879 Y67.828 E0.71112
G1 X79.879 Y47.828 E0.62709
G1 X71.059 Y47.828 E0.27654
G1 X71.059 Y67.828 E0.62709
G1 X56.879 Y67.828 E0.44460
G1 X56.879 Y41.501 E0.82546
G1 X126.559 Y41.501 E2.18477
G1 X126.559 Y67.828 E0.82546
G1 X122.379 Y67.828 E0.13106
G1 X122.379 Y47.888 E0.62520
M204 S1250
G1 X122.351 Y47.429 F9000.000
G1 E-2.24000 F4200.000
;WIPE_START
G1 F7200.000
G1 X120.733 Y47.883 E-0.91200
;WIPE_END
M73 P1 R177
G1 E-0.04800 F4200.000
G1 Z0.400 F9000.000
G1 X125.304 Y41.991
G1 Z0.200
G1 E3.20000 F2400.000
M204 S800
;TYPE:Solid infill
;WIDTH:0.421068
G1 F1200.000
G1 X125.899 Y42.586 E0.02645
G1 X125.899 Y43.121 E0.01682
G1 X124.939 Y42.161 E0.04269
G1 X124.404 Y42.161 E0.01682
G1 X125.899 Y43.656 E0.06647
G1 X125.899 Y44.190 E0.01682
G1 X123.870 Y42.161 E0.09025
G1 X123.335 Y42.161 E0.01682
G1 X125.899 Y44.725 E0.11403
G1 X125.899 Y45.260 E0.01682
G1 X122.800 Y42.161 E0.13781
G1 X122.265 Y42.161 E0.01682
G1 X125.899 Y45.795 E0.16159
G1 X125.899 Y46.329 E0.01682
G1 X121.730 Y42.161 E0.18537
G1 X121.196 Y42.161 E0.01682
G1 X125.899 Y46.864 E0.20915
G1 X125.899 Y47.399 E0.01682
G1 X120.661 Y42.161 E0.23293
G1 X120.126 Y42.161 E0.01682
G1 X125.899 Y47.934 E0.25671
G1 X125.899 Y48.469 E0.01682
G1 X119.591 Y42.161 E0.28049
G1 X119.056 Y42.161 E0.01682
G1 X125.899 Y49.003 E0.30427
G1 X125.899 Y49.538 E0.01682
G1 X118.522 Y42.161 E0.32805
G1 X117.987 Y42.161 E0.01682
G1 X125.899 Y50.073 E0.35183
G1 X125.899 Y50.608 E0.01682
G1 X123.039 Y47.747 E0.12719
G1 X123.039 Y48.282 E0.01682
G1 X125.899 Y51.142 E0.12719
G1 X125.899 Y51.677 E0.01682
G1 X123.039 Y48.817 E0.12719
G1 X123.039 Y49.352 E0.01682
G1 X125.899 Y52.212 E0.12719
G1 X125.899 Y52.747 E0.01682
G1 X123.039 Y49.887 E0.12719
G1 X123.039 Y50.421 E0.01682
G1 X125.899 Y53.282 E0.12719
G1 X125.899 Y53.816 E0.01682
G1 X123.039 Y50.956 E0.12719
G1 X123.039 Y51.491 E0.01682
G1 X125.899 Y54.351 E0.12719
M73 P1 R176
G1 X125.899 Y54.886 E0.01682
G1 X123.039 Y52.026 E0.12719
G1 X123.039 Y52.560 E0.01682
G1 X125.899 Y55.421 E0.12719
G1 X125.899 Y55.955 E0.01682
G1 X123.039 Y53.095 E0.12719
G1 X123.039 Y53.630 E0.01682
G1 X125.899 Y56.490 E0.12719
G1 X125.899 Y57.025 E0.01682
G1 X123.039 Y54.165 E0.12719
G1 X123.039 Y54.700 E0.01682
G1 X125.899 Y57.560 E0.12719
G1 X125.899 Y58.095 E0.01682
G1 X123.039 Y55.234 E0.12719
G1 X123.039 Y55.769 E0.01682
G1 X125.899 Y58.629 E0.12719
G1 X125.899 Y59.164 E0.01682
G1 X123.039 Y56.304 E0.12719
G1 X123.039 Y56.839 E0.01682
G1 X125.899 Y59.699 E0.12719
G1 X125.899 Y60.234 E0.01682
G1 X123.039 Y57.374 E0.12719
G1 X123.039 Y57.908 E0.01682
G1 X125.899 Y60.769 E0.12719
G1 X125.899 Y61.303 E0.01682
G1 X123.039 Y58.443 E0.12719
G1 X123.039 Y58.978 E0.01682
G1 X125.899 Y61.838 E0.12719
G1 X125.899 Y62.373 E0.01682
G1 X123.039 Y59.513 E0.12719
G1 X123.039 Y60.047 E0.01682
G1 X125.899 Y62.908 E0.12719
G1 X125.899 Y63.442 E0.01682
G1 X123.039 Y60.582 E0.12719
G1 X123.039 Y61.117 E0.01682
G1 X125.899 Y63.977 E0.12719
G1 X125.899 Y64.512 E0.01682
G1 X123.039 Y61.652 E0.12719
G1 X123.039 Y62.187 E0.01682
G1 X125.899 Y65.047 E0.12719
G1 X125.899 Y65.582 E0.01682
G1 X123.039 Y62.721 E0.12719
G1 X123.039 Y63.256 E0.01682
G1 X125.899 Y66.116 E0.12719
G1 X125.899 Y66.651 E0.01682
G1 X123.039 Y63.791 E0.12719
G1 X123.039 Y64.326 E0.01682
G1 X125.881 Y67.168 E0.12639
G1 X125.346 Y67.168 E0.01682
G1 X123.039 Y64.860 E0.10261
G1 X123.039 Y65.395 E0.01682
G1 X124.812 Y67.168 E0.07883
G1 X124.277 Y67.168 E0.01682
G1 X123.039 Y65.930 E0.05505
G1 X123.039 Y66.465 E0.01682
G1 X123.742 Y67.168 E0.03127
G1 X123.207 Y67.168 E0.01682
G1 X122.869 Y66.830 E0.01504
M204 S1250
G1 E-2.24000 F4200.000
;WIPE_START
G1 F7200.000
G1 X123.207 Y67.168 E-0.26499
G1 X123.742 Y67.168 E-0.29636
G1 X123.295 Y66.721 E-0.35065
;WIPE_END
G1 E-0.04800 F4200.000
G1 Z0.400 F9000.000
G1 X122.629 Y47.338
G1 Z0.200
G1 E3.20000 F2400.000
M204 S800
G1 F1200.000
G1 X117.452 Y42.161 E0.23020
G1 X116.917 Y42.161 E0.01682
G1 X121.925 Y47.168 E0.22266
G1 X121.390 Y47.168 E0.01682
G1 X116.383 Y42.161 E0.22266
G1 X115.848 Y42.161 E0.01682
G1 X120.855 Y47.168 E0.22266
G1 X120.320 Y47.168 E0.01682
G1 X115.313 Y42.161 E0.22266
G1 X114.778 Y42.161 E0.01682
G1 X119.785 Y47.168 E0.22266
G1 X119.251 Y47.168 E0.01682
G1 X114.243 Y42.161 E0.22266
G1 X113.709 Y42.161 E0.01682
G1 X118.716 Y47.168 E0.22266
G1 X118.181 Y47.168 E0.01682
G1 X113.174 Y42.161 E0.22266
G1 X112.639 Y42.161 E0.01682
G1 X117.646 Y47.168 E0.22266
G1 X117.112 Y47.168 E0.01682
G1 X112.104 Y42.161 E0.22266
G1 X111.570 Y42.161 E0.01682
G1 X116.577 Y47.168 E0.22266
G1 X116.042 Y47.168 E0.01682
G1 X111.035 Y42.161 E0.22266
G1 X110.500 Y42.161 E0.01682
G1 X115.507 Y47.168 E0.22266
G1 X114.972 Y47.168 E0.01682
G1 X109.965 Y42.161 E0.22266
G1 X109.430 Y42.161 E0.01682
G1 X114.438 Y47.168 E0.22266
G1 X113.903 Y47.168 E0.01682
G1 X108.896 Y42.161 E0.22266
G1 X108.361 Y42.161 E0.01682
